!!!!SEGMENT: pl-wumfc--n47524--005_karlowicz-mieczyslaw--szesc-piesni-op-6-no-5-pamietam-ciche-jesne-zlote-dnie.krn
!!!cenid: 18xx:4247
!!!COM: Karłowicz, Mieczysław
!!!COM-rismID: pe30108288
!!!CDT: 1876/12/11-1909/02/08
!!!CNT: Polish
!!!GTL: Sześć pieśni op. 6
!!!OTL: No. 5 Pamiętam ciche, jesne, złote dnie...
!!!OMV: 005
!!!PDT: 1897
!!!AGN:
!!!SMS-siglum: PL-Wumfc
!!!SMS-shelfmark: N47524
!!!SMS-shelfwork: 001-005 G
!!!SMS-variant:
!!!SMS-altvar:
!!!NIFC-rismSourceID: 1001177915
!!!NIFC-rismChildID: 1001177915
!!!NIFC-islandoraID: pl-wumfc:8021
!!!URL-pdf-islandora: https://repozytorium.nifc.pl/islandora/object/pl-wumfc:8021/datastream/PDF/view
!!!URL-scan: https://polish.musicsources.pl/pl/lokalizacje/galeria/druki-muzyczne/12515/6 @EN{Scan on Polish Music Sources Website} @PL{Skany w portalu Dziedzictwo Muzyki Polskiej w otwartym dostępie}
!!!ONB-nifc: Skan 0006
!!!AIN: 2 piano 1 vox
!!!key:
**kern	**kern	**dynam	**kern	**text	**dynam
*part3	*part2	*part2	*part1	*part1	*part1
*staff3	*staff2	*	*staff1	*staff1	*
*Ipiano	*Ipiano	*	*Ivox	*	*
*I"[Piano]	*I"[Piano]	*	*I"[Voce]	*	*
*I'pf	*I'pf	*	*I'V	*	*
*clefG2	*clefG2	*	*clefG2	*	*
*k[f#c#g#]	*k[f#c#g#]	*	*k[f#c#g#]	*	*
*A:	*A:	*	*A:	*	*
*M4/4	*M4/4	*	*M4/4	*	*
*met(c)	*met(c)	*	*met(c)	*	*
=1	=1	=1	=1	=1	=1
*^	*	*	*	*	*
!	!	!	!	!LO:TX:B:a:t=Moderato. M.M [quarter]=92.	!	!
!	!LO:TX:b:i:t=sempre 2 Ped.	!	!	!LO:TX:a:t=Słowa K. Tetmajera.\n(Preludia XXXIV.)	!	!
8r	1A	(8ee\L 8ccc#	p	1r	.	.
(8e/L	.	8cc#\ 8aa	.	.	.	.
8a/	.	8ee\ 8ccc#	.	.	.	.
8e/J	.	8cc#\J 8aa	.	.	.	.
8a/L	.	8ee\L 8ccc#	.	.	.	.
8e/	.	8cc#\ 8aa	.	.	.	.
8a/	.	8ee\ 8ccc#	.	.	.	.
8e/J)	.	8cc#\J) 8aa	.	.	.	.
=2	=2	=2	=2	=2	=2	=2
8r	1A	(8ee\L 8ccc#	.	1r	.	.
(8e/L	.	8cc#\ 8aa	.	.	.	.
8a/	.	8ee\ 8ccc#	.	.	.	.
8e/J	.	8cc#\J 8aa	.	.	.	.
8a/L	.	8ee\L 8ccc#	.	.	.	.
8e/	.	8cc#\ 8aa	.	.	.	.
8a/	.	8ee\ 8ccc#	.	.	.	.
8e/J)	.	8cc#\J) 8aa	.	.	.	.
=3	=3	=3	=3	=3	=3	=3
8r	1A	(8ee\L 8ccc#	pp	8r	.	.
(8e/L	.	8cc#\ 8aa	.	8e/	Pa-	.
8a/	.	8ee\ 8ccc#	.	8f#/	-mię-	.
8e/J	.	8cc#\J 8aa	.	8g#/	-tam	.
8a/L	.	8ee\L 8ccc#	.	4a/	ci-	.
8e/	.	8cc#\ 8aa	.	.	.	.
8a/	.	8ee\ 8ccc#	.	4g#/	-che,	.
8e/J)	.	8cc#\J) 8aa	.	.	.	.
!	!	!	!	!	!	!
!!LO:LB:g=original	!	!	!	!	!	!
=4	=4	=4	=4	=4	=4	=4
8r	1A	(8ff#\L 8ccc#	.	8f#/	jas-	.
(8f#/L	.	8cc#\ 8aa	.	8f#/	-ne,	.
8a/	.	8ff#\ 8ccc#	.	8g#/	zło-	.
8f#/J	.	8cc#\J 8aa	.	8a/	-te	.
8a/L	.	8ff#\L 8ccc#	.	4.f#/	dnie,	.
8f#/	.	8cc#\ 8aa	.	.	.	.
8a/	.	8ff#\ 8ccc#	.	.	.	.
8f#/J)	.	8cc#\J) 8aa	.	8r	.	.
=5	=5	=5	=5	=5	=5	=5
8r	1A	(8ff#\L 8ddd	.	8r	.	.
(8f#/L	.	8dd\ 8bb	.	8f#/	Co	.
8b/	.	8ff#\ 8ddd	.	8g#/	mi	.
8f#/J	.	8dd\J 8bb	.	8a/	się	.
8b/L	.	8ff#\L 8ddd	.	4b\	dzi-	.
8f#/	.	8dd\ 8bb	.	.	.	.
8b/	.	8ff#\ 8ddd	.	4cc#\	-siaj	.
8f#/J)	.	8dd\J) 8bb	.	.	.	.
=6	=6	=6	=6	=6	=6	=6
8r	1A	(8ffn\L 8ddd	.	8dd\	cud-	.
(8fn/L	.	8dd\ 8bb	.	8dd\	-nym	.
8g#/	.	8ff\ 8ddd	.	8cc#\	zda-	.
8f/J	.	8dd\J 8bb	.	8b\	-ją	.
8g#/L	.	8ff\L 8ddd	.	4.dd\	sem,	.
8f/	.	8dd\ 8bb	.	.	.	.
8g#/	.	8ff\ 8ddd	.	.	.	.
8f/J)	.	8dd\J) 8bb	.	8r	.	.
!!LO:LB:g=original
=7	=7	=7	=7	=7	=7	=7
8r	2A\	(8ee\L 8ccc#	.	8r	.	.
(8e/L	.	8cc#\ 8aa	<	8e/	Bo	.
!	!	!	!	!	!	!LO:DY:a
8a/	.	8ee\ 8ccc#	.	8f#/	był	<
8e/J)	.	8cc#\J 8aa	.	8g#/	ot-	.
8r	2G#\	8ee\L 8ccc#	.	4a/	-war-	.
(8e/L	.	8cc#\ 8aa	.	.	.	.
8a/	.	8ee\ 8ccc#	.	4b\	-ty	.
8e/J)	.	8cc#\J) 8aa	.	.	.	.
*v	*v	*	*	*	*	*
=8	=8	=8	=8	=8	=8
(8Gn/L	(8ee\L 8ccc#	.	4cc#\	raj	.
8c#/	8cc#\ 8bb	.	.	.	.
!	!	!	!LO:TX:t=P:problem:triola oznaczona jako 3	!	!
8b/	8ee\ 8ccc#	.	12b\	tak-	.
.	.	.	12b\	-że	.
8e/J	8cc#\J 8bb	[	.	.	.
.	.	.	12a#X/	i	.
8F#/L	8ee\L 8ccc#	.	4.cc#\	mnie	[
8c#/	8cc#\ 8aa#X	.	.	.	.
8a#X/	8ee\ 8ccc#	.	.	.	.
8e/J)	8cc#\J) 8aa#	.	8r	.	.
*clefF4	*	*	*	*	*
=9	=9	=9	=9	=9	=9
(8BB\L	(8dd#X\L 8ccc#	>	8r	.	.
!	!	!	!	!	!LO:DY:a
8F#\	8cc#\ 8aan	.	8an/	Bo	>
8d#X\	8dd#\ 8ccc#	.	8g#/	był	.
8an\J)	8cc#\J 8aa	.	8f#/	ot-	.
(8E\L	8dd#\L 8ccc#	.	4e/	-war-	.
8An\	8cc#\ 8aa	.	.	.	.
8c#\	8dd#\ 8ccc#	.	8a/	-ty	.
8e\J)	8cc#\J) 8aa	.	8f#/	w dzie-	.
!!LO:PB:g=original
=10	=10	=10	=10	=10	=10
(8E\L	(8dd\L 8bb	.	4..b\	-ciń-	.
8B\	8a\ 8ff#	.	.	.	.
8e\	8dd\ 8bb	]	.	.	.
8E\J	8g#\J 8ee	.	.	.	.
.	.	.	16a/	-stwie	]
8AA\L	8cc#\L 8aa	.	2a/	mem.	.
8E\	8a\ 8ee	.	.	.	.
8A\	8cc#\ 8aa	.	.	.	.
8G#\J)	8a\J) 8ee	.	.	.	.
=11	=11	=11	=11	=11	=11
(8F#\L	(8cc#\L 8aa	mf	8r	.	.
8A\	8a\ 8ff#	.	8a/	I	.
8c#\	8a\ 8ff#	.	8g#/	cza-	.
8A\J)	8f#\J) 8cc#	.	8f#/	-sem	.
(8Fn\L	(8aa\L 8ccc#	.	4a/	myś-	.
8A\	8cc#\ 8aa	.	.	.	.
8fn\	8cc#\ 8aa	.	4a/	-lę,	.
8c#\J)	8a\J) 8cc#	.	.	.	.
=12	=12	=12	=12	=12	=12
(8E\L	(8aa\L 8ccc#	.	8a/	żem	.
8A\	8cc#\ 8aa	.	8cc#\	ja	.
8e\	8cc#\ 8aa	.	8b\	tyl-	.
8c#\J)	8a\J) 8cc#	.	8a/	-ko	.
(8E\L	(8gg#\L 8ccc#	.	4.g#/	spał,	.
8G#\	8cc#\ 8gg#	.	.	.	.
8g#\	8cc#\ 8gg#	.	.	.	.
8c#\J)	8g#\J) 8cc#	.	8r	.	.
!!LO:LB:g=original
=13	=13	=13	=13	=13	=13
(8E\L	(8ggn\L 8ccc#	<	8r	.	.
!	!	!	!	!	!LO:DY:a
8A#X\	8cc#\ 8aa#X	.	8gn/	Że	<
8gn\	8cc#\ 8aa#	.	8an/	ca-	.
8c#\J)	8a#X\J) 8gg	.	8g/	-łe	.
(8D#X\L	(8ff#\L 8ccc#	.	4f#/	ży-	.
8F#\	8cc#\ 8ff#	.	.	.	.
8B\	8ff#\ 8bb	.	4b\	-cie	.
8f#\J)	8b\J) 8ff#	.	.	.	.
=14	=14	=14	=14	=14	=14
(8Dn\L	(8ff#\L 8bb	.	8b\	mo-	.
8G#\	8b\ 8ff#	.	8b\	-je	.
8f#\	8b\ 8ff#	.	8a/	by-	.
!	!LO:TX:b:i:t=rit.	!	!	!	!
8B\J)	8f#\J) 8b	[	8g#X/	-ło	.
!	!	!	!LO:TX:a:t=rit.	!	!LO:DY:a
(8C#\L	(8ee#X\L 8ccc#	>	2cc#\	snem	[ > ]]
8G#\	8cc#\ 8gg#	.	.	.	.
8e#X\	8ee#\ 8ccc#	.	.	.	.
8BB\J)	8cc#\J) 8gg#	]	.	.	.
=15	=15	=15	=15	=15	=15
!	!LO:TX:b:i:t=a tempo	!	!LO:TX:a:i:t=a tempo	!	!LO:DY:a
(8AA\L	(8een\L 8ccc#	pp	4e/	Zbu-	pp
8E\	8cc#\ 8aa	.	.	.	.
8A\	8ee\ 8ccc#	.	8f#/	-dzę	.
8c#\J	8cc#\J 8aa	.	8g#/	się,	.
*clefG2	*	*	*	*	*
8e/L	8ee\L 8ccc#	.	4a/	raj	.
8a/	8cc#\ 8aa	.	.	.	.
8e/	8ee\ 8ccc#	.	8g#/	ten	.
8c#/J)	8cc#\J) 8aa	.	8g#/	od-	.
=16	=16	=16	=16	=16	=16
*^	*	*	*	*	*
8r	1A	(8ff#\L 8ccc#	.	4f#/	-naj-	.
(8f#/L	.	8cc#\ 8aa	.	.	.	.
8a/	.	8ff#\ 8ccc#	.	8g#/	-dę	.
8f#/J	.	8cc#\J 8aa	.	8f#/	com	.
8a/L	.	8ffn\L 8ccc#	.	4.a/	miał	.
8fn/	.	8cc#\ 8aa	.	.	.	.
8a/	.	8ff\ 8ccc#	.	.	.	.
8f/J)	.	8cc#\J) 8aa	.	8r	.	.
!!LO:LB:g=original
=17	=17	=17	=17	=17	=17	=17
8r	2A\	(8ee\L 8ccc#	.	4r	.	.
(8e/L	.	8cc#\ 8aa	.	.	.	.
!	!	!	!	!	!	!LO:DY:a
8a/	.	8ee\ 8ccc#	<	4e/	Com	<
8e/J	.	8cc#\J 8aa	.	.	.	.
8F#/L	2ryy	8dd#X\L 8ccc#	.	4a/	miał	.
8B/	.	8cc#\ 8aa	.	.	.	.
8a/	.	8dd#\ 8ccc#	.	4cc#\	w dzie-	.
8d#X/J)	.	8cc#\J) 8aa	.	.	.	.
*v	*v	*	*	*	*	*
*clefF4	*	*	*	*	*
=18	=18	=18	=18	=18	=18
(8E\L	(8ee\L 8ccc#	.	2.ee\	-ciń-	.
8c#\	8cc#\ 8aa	.	.	.	.
8a\	8ee\ 8ccc#	.	.	.	.
8e\J	8cc#\J 8aa	.	.	.	.
8E\L	8ee\L 8dddn	.	.	.	.
8f#\	8dd\ 8aa	.	.	.	.
8g#\	8ee\ 8ddd	.	4ee\	-stwie	.
8E\J)	8dd\J) 8gg#	.	.	.	.
=19	=19	=19	=19	=19	=19
!	!	!	!	!	!LO:DY:a
(8AA\L	(8cc#\L 8aa	f	[1aa	mem!-	f
8E\	8ee\ 8ccc#	.	.	.	.
8A\	8aa\ 8eee	.	.	.	.
8c#\J	8ee\J 8ccc#	.	.	.	.
8e>\L	8aa/L 8eee	.	.	.	.
8a>\J	8ee/ 8ccc#	.	.	.	.
8cc#>\)	8aa/ 8eee	.	.	.	.
8r>	8ee/J) 8ccc#	.	.	.	.
=20	=20	=20	=20	=20	=20
(8FFn\L	(8aa\L 8fffn	.	2aa\]	.	.
8C#X\	8ffn\ 8ccc#X	.	.	.	.
8Fn\	8aa\ 8fff	.	.	.	.
8A\J	8ff\J 8ccc#	.	.	.	.
8c#X>\L	8aa/L 8fff	.	2r	.	.
8fn>\J	8ff/ 8ccc#	.	.	.	.
8a>\)	8aa/ 8fff	.	.	.	.
8r>	8ff/J) 8ccc#	.	.	.	.
!!LO:LB:g=original
(8AA\L	(8aa\L 8eee	.	1r	.	.
8E\	8ee\ 8ccc#	.	.	.	.
8A\	8aa\ 8eee	.	.	.	.
8c#\J	8ee\J 8ccc#	.	.	.	.
8e>\L	8aa/L 8eee	.	.	.	.
8a>\J	8ee/ 8ccc#	.	.	.	.
8cc#>\)	8aa/ 8eee	.	.	.	.
8r>	8ee/J) 8ccc#	.	.	.	.
=22	=22	=22	=22	=22	=22
(8FFn\L	(8aa\L 8fffn	.	1r	.	.
8C#X\	8ffn\ 8ccc#X	.	.	.	.
8Fn\	8aa\ 8fff	.	.	.	.
8A\J	8ff\J 8ccc#	.	.	.	.
8c#X>\L	8aa/L 8fff	.	.	.	.
8fn>\J	8ff/ 8ccc#	.	.	.	.
8a>\)	8aa/ 8fff	.	.	.	.
8r>	8ff/J) 8ccc#	.	.	.	.
=23	=23	=23	=23	=23	=23
(8AA\L	(8aa\L 8eee	.	1r	.	.
8E\	8ee\ 8ccc#	.	.	.	.
8A\	8aa\ 8eee	.	.	.	.
8c#\J	8ee\J 8ccc#	.	.	.	.
8e>\L	8aa/L 8eee	.	.	.	.
8a>\	8ee/ 8ccc#	.	.	.	.
8cc#>\	8aa/ 8eee	.	.	.	.
8ee>\J	8aa/J 8ccc#	.	.	.	.
=24	=24	=24	=24	=24	=24
2aa>\)	2ccc#/) 2eee	.	1r	.	.
2r	2r	.	.	.	.
=25	=25	=25	=25	=25	=25
2r	[1e	p	1r	.	.
(<[2E\	.	.	.	.	.
=26	=26	=26	=26	=26	=26
1AA;) 1E] 1A	1c#; 1e] 1a 1cc#	.	1r;	.	.
==	==	==	==	==	==
*-	*-	*-	*-	*-	*-
!!!system-decoration: s1[(s2,s3)]
!!!RDF**kern: > = above
!!!RDF**kern: < = below
!!!ENC: Anastazja Marusiak
!!!END: 2022-11-23
!!!ENC: Leszek Kubiak
!!!END: 2023-08-26
!!!YEC: Copyright 2022 Narodowy Instytut Fryderyka Chopina (https://polishscores.org)
!!!YEM: License CC-BY-4.0 (https://creativecommons.org/licenses/by/4.0)
